dist/svgs/core-ui-icons/free/cil-blur.svg

<svg xmlns="http://www.w3.org/2000/svg" viewBox="0 0 512 512"><path d="M87.371 161.022A71.371 71.371 0 1016 89.652a71.45 71.45 0 0071.371 71.37zm0-110.741A39.371 39.371 0 1148 89.652a39.415 39.415 0 0139.371-39.371zm186.94 114.693a59.468 59.468 0 10-59.468-59.467 59.534 59.534 0 0059.468 59.467zm0-86.935a27.468 27.468 0 11-27.468 27.468 27.5 27.5 0 0127.468-27.468z"/><circle cx="435.516" cy="115.386" r="29.637"/><path d="M87.371 328.511A71.371 71.371 0 1016 257.141a71.45 71.45 0 0071.371 71.37zm0-110.741A39.371 39.371 0 1148 257.141a39.415 39.415 0 0139.371-39.371zm186.94 98.838a59.468 59.468 0 10-59.468-59.467 59.534 59.534 0 0059.468 59.467zm0-86.935a27.468 27.468 0 11-27.468 27.468 27.5 27.5 0 0127.468-27.468z"/><circle cx="435.516" cy="257.141" r="29.637"/><path d="M87.371 496A71.371 71.371 0 1016 424.629 71.451 71.451 0 0087.371 496zm0-110.742A39.371 39.371 0 1148 424.629a39.415 39.415 0 0139.371-39.371zm186.94 82.984a59.468 59.468 0 10-59.468-59.468 59.534 59.534 0 0059.468 59.468zm0-86.935a27.468 27.468 0 11-27.468 27.467 27.5 27.5 0 0127.468-27.467z"/><circle cx="435.516" cy="398.895" r="29.637"/></svg>

<svg xmlns="http://www.w3.org/2000/svg" viewBox="0 0 512 512">
  <path fill="var(--ci-primary-color, currentColor)" d="M87.371,161.022A71.371,71.371,0,1,0,16,89.652,71.45,71.45,0,0,0,87.371,161.022Zm0-110.741A39.371,39.371,0,1,1,48,89.652,39.415,39.415,0,0,1,87.371,50.281Z" class="ci-primary"/>
  <path fill="var(--ci-primary-color, currentColor)" d="M274.311,164.974a59.468,59.468,0,1,0-59.468-59.467A59.534,59.534,0,0,0,274.311,164.974Zm0-86.935a27.468,27.468,0,1,1-27.468,27.468A27.5,27.5,0,0,1,274.311,78.039Z" class="ci-primary"/>
  <circle cx="435.516" cy="115.386" r="29.637" fill="var(--ci-primary-color, currentColor)" class="ci-primary"/>
  <path fill="var(--ci-primary-color, currentColor)" d="M87.371,328.511A71.371,71.371,0,1,0,16,257.141,71.45,71.45,0,0,0,87.371,328.511Zm0-110.741A39.371,39.371,0,1,1,48,257.141,39.415,39.415,0,0,1,87.371,217.77Z" class="ci-primary"/>
  <path fill="var(--ci-primary-color, currentColor)" d="M274.311,316.608a59.468,59.468,0,1,0-59.468-59.467A59.534,59.534,0,0,0,274.311,316.608Zm0-86.935a27.468,27.468,0,1,1-27.468,27.468A27.5,27.5,0,0,1,274.311,229.673Z" class="ci-primary"/>
  <circle cx="435.516" cy="257.141" r="29.637" fill="var(--ci-primary-color, currentColor)" class="ci-primary"/>
  <path fill="var(--ci-primary-color, currentColor)" d="M87.371,496A71.371,71.371,0,1,0,16,424.629,71.451,71.451,0,0,0,87.371,496Zm0-110.742A39.371,39.371,0,1,1,48,424.629,39.415,39.415,0,0,1,87.371,385.258Z" class="ci-primary"/>
  <path fill="var(--ci-primary-color, currentColor)" d="M274.311,468.242a59.468,59.468,0,1,0-59.468-59.468A59.534,59.534,0,0,0,274.311,468.242Zm0-86.935a27.468,27.468,0,1,1-27.468,27.467A27.5,27.5,0,0,1,274.311,381.307Z" class="ci-primary"/>
  <circle cx="435.516" cy="398.895" r="29.637" fill="var(--ci-primary-color, currentColor)" class="ci-primary"/>
</svg>
